!!!!SEGMENT: pl-stab--24b--001_nowakiewicz-kazimierz--hej-bracia-czy-spicie.krn
!!!cenid: 18xx:3447
!!!COM: Nowakiewicz, Kazimierz
!!!COM-rismID: pe30020309
!!!CDT: <1800->1824
!!!CNT: Polish
!!!OTL: Hej bracia czy śpicie
!!!PDT: 1850
!!!AGN:
!!!SMS-siglum: PL-STAb
!!!SMS-shelfmark: 24b
!!!SMS-shelfwork: 001 W
!!!SMS-variant:
!!!SMS-altvar:
!!!NIFC-rismSourceID: 301050703
!!!NIFC-rismChildID: 301050703
!!!NIFC-islandoraID: pl-stab:3601
!!!URL-pdf-islandora: https://repozytorium.nifc.pl/islandora/object/pl-stab%3A3601/datastream/PDF/view
!!!URL-scan: https://polish.musicsources.pl/pl/lokalizacje/galeria/rekopisy/4465 @EN{Scan on Polish Music Sources Website} @PL{Skany w portalu Dziedzictwo Muzyki Polskiej w otwartym dostępie}
!!!ONB-nifc: UWAGA: Hej bracia czy śpicie na podstawie partytury (Śpiew i Organ). Zamiast partii B podanej na karcie tytułowej, w źródle pojawia się partia S – proszę nie dodawać pustej pięciolinii dla B.
!!!OMD: Allegretto
!!!AIN: 1 organ 1 vox
!!!key: G
**kern	**kern	**dynam	**kern	**text	**mod-text
*part2	*part2	*part2	*part1	*part1	*part1
*staff3	*staff2	*	*staff1	*staff1	*staff1
*I"Organ.	*I"Organ.	*	*I"Spiew.	*	*
*mI"Organo	*mI"Organo	*	*mI"Voci	*	*
*I'	*I'	*	*I'	*	*
*mI'org	*mI'org	*	*mI'V	*	*
*Iorgan	*Iorgan	*	*Ivox	*	*
*ICklav	*ICklav	*	*ICvox	*	*
*IGacmp	*IGacmp	*	*IGsolo	*	*
*clefF4	*clefG2	*	*clefG2	*	*
*k[f#]	*k[f#]	*	*k[f#]	*	*
*G:	*G:	*	*G:	*	*
*M2/4	*M2/4	*	*M2/4	*	*
=1	=1	=1	=1	=1	=1
!LO:TX:t=P:problem=all\right&colon; global	!LO:TX:t=P:problem=all\right&colon; global	!	!	!	!
8D\	8dd\ 8d\	.	2r	.	.
4D\	4dd\ 4d\	.	.	.	.
8D\	8dd\ 8d\	.	.	.	.
=2	=2	=2	=2	=2	=2
8C#X\L	8cc#X\L 8c#X\	.	2r	.	.
(>8D\	(>\8dd 8d\	.	.	.	.
8E\)	8ee\ 8e\)	.	.	.	.
8D\J)	8dd\J 8d\	.	.	.	.
=3	=3	=3	=3	=3	=3
8C#X\L	8cc#\L 8c#X\	.	2r	.	.
(>8D\	(>\8dd 8d\	.	.	.	.
8AA\	8a\ 8A\	.	.	.	.
8D\J)	8dd\J 8d\)	.	.	.	.
=4	=4	=4	=4	=4	=4
8GG/	8b/ 8B/	.	2r	.	.
4GG/	4g/ 4G/	.	.	.	.
8GG/	8g/ 8G/	.	.	.	.
=5	=5	=5	=5	=5	=5
!LO:MO:mod=*null:null	!	!	!	!	!
*2\right	*	*	*	*	*
2d\ 2A\ 2D\	8f#/L	.	2r	.	.
.	(<16f#/L	.	.	.	.
.	16e/JJ)	.	.	.	.
.	(<16d/LL	.	.	.	.
.	16e/	.	.	.	.
.	16f#/	.	.	.	.
.	16d/JJ)	.	.	.	.
=6	=6	=6	=6	=6	=6
2G\ 2D\ 2GG\	8g/L	.	2r	.	.
.	(<16g/L	.	.	.	.
.	16f#/JJ)	.	.	.	.
.	(<16g/LL	.	.	.	.
.	16a/	.	.	.	.
.	16b/	.	.	.	.
.	16g/JJ)	.	.	.	.
=7	=7	=7	=7	=7	=7
2c\ 2A\ 2D\	8f#/L	.	2r	.	.
.	16f#/L	.	.	.	.
.	16e/JJ	.	.	.	.
.	(<16d/LL	.	.	.	.
.	16e/	.	.	.	.
.	16f#/	.	.	.	.
.	16d/JJ)	.	.	.	.
=8	=8	=8	=8	=8	=8
2B\ 2G\ 2D\	8g/	.	2r	.	.
.	4g/	.	.	.	.
.	8ggT>\	.	.	.	.
=9	=9	=9	=9	=9	=9
*^	*	*	*	*	*
!LO:N:vis=2	!	!	!	!	!	!
8D\L	2D/	8ff#\L	.	2r	.	.
8c\ 8A\ 8F#\	.	16ff#\L	.	.	.	.
.	.	16ee\JJ	.	.	.	.
8c\ 8A\ 8F#\	.	(>16dd\LL	.	.	.	.
.	.	16ee\	.	.	.	.
8c\J 8A\ 8F#\	.	16ff#\	.	.	.	.
.	.	16dd\JJ)	.	.	.	.
!!LO:LB:g=original
=10	=10	=10	=10	=10	=10	=10
!LO:TX:a:t=P:problem=mixed beam	!	!	!	!	!	!
8GG/L	2GG\	8gg\L	.	2r	.	.
8G\J	.	(>16gg\L	.	.	.	.
.	.	16ff#\JJ)	.	.	.	.
!LO:TX:a:t=P:problem=mixed beam	!	!	!	!	!	!
8D/L 8BB/	.	(>16gg\LL	.	.	.	.
.	.	16aa\	.	.	.	.
8G\J	.	16bb\	.	.	.	.
.	.	16gg\JJ)	.	.	.	.
=11	=11	=11	=11	=11	=11	=11
8D\L	2D\	8ff#\L	.	2r	.	.
8c\ 8A\ 8F#\	.	16ff#\L	.	.	.	.
.	.	16ee\JJ	.	.	.	.
8c\ 8A\ 8F#\	.	(>16dd\LL	.	.	.	.
.	.	16ee\	.	.	.	.
8c\J 8A\ 8F#\	.	16ff#\	.	.	.	.
.	.	16dd\JJ)	.	.	.	.
=12	=12	=12	=12	=12	=12	=12
8G\L	2G 2GG\	8gg\	.	2r	.	.
8B\ 8G\ 8D\	.	4g/	.	.	.	.
8B\ 8G\ 8D\	.	.	.	.	.	.
8B\J 8G\ 8D\	.	8g/	.	.	.	.
*v	*v	*	*	*	*	*
=13||	=13||	=13||	=13||	=13||	=13||
*	*tremolo	*	*	*	*
!	!	!	!LO:TX:t=P:problem=all\right&colon; global	!	!
8GG/	8dd/L 8d/	.	8dd\	Hej	Hej
8r	8g/	.	4dd\	bra-	bra-
8G\	8dd/ 8d/	.	.	.	.
8r	8g/J	.	8dd\	-cia	-cia
*	*Xtremolo	*	*	*	*
=14	=14	=14	=14	=14	=14
8GG/	8cc#X\L 8a#X\	.	8cc#X\L	czy	czy
8r	8dd\ 8b\	.	8dd\J	.	.
8G\	8ee\ 8cc#\	.	8ee\	spi-	śpi-
8r	8dd\J 8b\	.	8dd\	-cie	-cie
=15	=15	=15	=15	=15	=15
*^	*	*	*	*	*
8G\L	[>2GG\	8cc#X\L 8a#X\	.	8cc#X\	czy	czy
8d\ 8B\	.	8dd\ 8b\	.	8dd\	wszy-	wszy-
!	!	!LO:SIC:s=8a	!	!	!	!
8d\ 8B\	.	8a#\	.	8a\	-scy	-scy
8d\J 8B\	.	8dd\J	.	8dd\	ba-	ba-
=16	=16	=16	=16	=16	=16	=16
8G\L	2GG\]	8b\	.	8b\	-czy-	-czy-
8d\ 8B\	.	4gg\	.	4g/	-cie	-cie
8d\ 8B\	.	.	.	.	.	.
8d\J 8B\	.	8g/	.	8r	.	.
*v	*v	*	*	*	*	*
=17	=17	=17	=17	=17	=17
*	*tremolo	*	*	*	*
2D\ 2DD\	(<8cc/L 8f#/	.	8f#/	dzi-	dzi-
.	8d/	.	8f#/	-wy	-wy
.	8cc/ 8f#/	.	8d/	nie-	nie-
.	8d/J)	.	8f#/	-sły-	-sły-
=18	=18	=18	=18	=18	=18
2G\ 2GG\	(<8bL 8g/	.	8g/	-cha-	-cha-
.	8d/	.	4b\	.	.
.	8b 8g/	.	.	.	.
.	8d/J)	.	8g/	-ne	-ne
!!LO:LB:g=original
=19	=19	=19	=19	=19	=19
2D\ 2DD\	(<8cc/L 8f#/	.	8f#/	dzi-	dzi-
.	8d/	.	8f#/	-wy	-wy
.	8cc/ 8f#/	.	8d/	nie-	nie-
.	8d/J)	.	8f#/	-sły-	-sły-
*	*Xtremolo	*	*	*	*
=20	=20	=20	=20	=20	=20
!LO:TX:a:t=P:problem=mixed beam	!	!	!	!	!
8GG/L	8g/L	.	8g/	-ha-	-cha-
8BJ 8G 8D\	8b/J	.	4b\	.	.
!	!LO:TX:a:t=P:problem=mixed beam	!	!	!	!
8BL 8G 8D\	8a/L	.	.	.	.
8BJ 8G 8D\	8gg\J	.	8g/	-ne	-ne
=21	=21	=21	=21	=21	=21
!	!	!LO:DY:a:rj	!	!	!
8D\L	8ff#\L	f	2r	.	.
8d\	16ff#\L	.	.	.	.
.	16ee\JJ	.	.	.	.
8c\ 8A\	16dd\LL	.	.	.	.
.	16ee\	.	.	.	.
8d\J	16ff#\	.	.	.	.
.	16dd\JJ	.	.	.	.
=22	=22	=22	=22	=22	=22
8B\L 8G\	8gg\L	.	2r	.	.
8d\	16gg\L	.	.	.	.
.	16ff#\JJ	.	.	.	.
8B\ 8G\	16gg\LL	.	.	.	.
.	16aa\	.	.	.	.
8d\J	16bb\	.	.	.	.
.	16gg\JJ	.	.	.	.
=23	=23	=23	=23	=23	=23
8D\L	8ff#\L	.	2r	.	.
8d\	16ff#\L	.	.	.	.
.	16ee\JJ	.	.	.	.
8c\ 8A\ 8F#\	16dd\LL	.	.	.	.
.	16ee\	.	.	.	.
8d\J	16ff#\	.	.	.	.
.	16dd\JJ	.	.	.	.
=24	=24	=24	=24	=24	=24
8B\L 8G\	8gg\	.	2r	.	.
8d\	4gg\	.	.	.	.
8B\ 8G\	.	.	.	.	.
8d\J	8g/	.	.	.	.
=25	=25	=25	=25	=25	=25
2G\ 2GG\	8r	.	8dd\	aj	aj
.	8b/L 8g/ 8d/	.	4dd\	trwo-	trwo-
.	8b/ 8g/ 8d/	.	.	.	.
.	8b/J 8g/ 8d/	.	8dd\	-ga	-ga
=26	=26	=26	=26	=26	=26
*	*rep	*	*	*	*
2G\ 2GG\	8r	.	8cc#X\L	dla	dla
.	8b/L 8g/ 8d/	.	8dd\J	.	.
!	!	!	!LO:SIC:s=8ee	!	!
.	8b/ 8g/ 8d/	.	8ee\L	Bo-	Bo-
!	!	!	!LO:SIC:s=8dd	!	!
.	8b/J 8g/ 8d/	.	8dd\J	-ga	-ga
*	*Xrep	*	*	*	*
!!LO:PB:g=original
=27	=27	=27	=27	=27	=27
!	!	!	!LO:SIC:s=8cc#XL	!	!
2G\ 2GG\	8r	.	(>8cc#X\	co	co
!	!	!	!LO:SIC:s=8ddJ	!	!
.	8b/L 8g/ 8d/	.	8dd\)	.	.
!	!	!	!LO:SIC:s=8aL	!	!
.	8b/ 8g/ 8d/	.	(>8b\	się	się
!	!	!	!LO:SIC:s=8ddJ	!	!
.	8b/J 8g/ 8d/	.	8dd\)	.	.
=28	=28	=28	=28	=28	=28
2G\ 2GG\	8r	.	8b\	dzie-	dzie-
.	8b/L 8g/ 8d/	.	4g/	-je	-je
.	8b/ 8g/ 8d/	.	.	.	.
.	8b/J 8g/ 8d/	.	8r	.	.
=29	=29	=29	=29	=29	=29
2D/ 2DD/	8r	.	8f#/	jas-	jas-
.	8cc/L 8a/ 8d/	.	8f#/	-ność	-ność
.	8cc/ 8a/ 8d/	.	8d/	w no-	w no-
.	8cc/J 8a/ 8d/	.	8f#/	-cy	-cy
=30	=30	=30	=30	=30	=30
2G\ 2GG\	8r	.	8g/	choć	choć
.	8b/L 8g/ 8d/	.	8a/	nie	nie
.	8b/ 8g/ 8d/	.	8b/	dnie-	dnie-
.	8b/J 8g/ 8d/	.	8g/	-je	-je
=31	=31	=31	=31	=31	=31
2D/ 2DD/	8r	.	8f#/	jas-	jas-
.	8cc/L 8a/ 8d/	.	8f#/	-ność	-ność
.	8cc/ 8a/ 8d/	.	8d/	w no-	w no-
.	8cc/J 8a/ 8d/	.	8f#/	-cy	-cy
=32	=32	=32	=32	=32	=32
2G\ 2GG\	8r	.	8g/	hoć	choć
.	8bL 8g 8d/	.	8g/	nie	nie
.	8bJ 8g/	.	8g/	dnie-	dnie-
.	8gg 8b\	.	8g/	-je	-je.
=33	=33	=33	=33	=33	=33
*tremolo	*	*	*	*	*
!	!LO:TX:a:t=3:mod=	!	!	!	!
8c\L 8A\ 8F#\	(>16ff#\LL	.	2r	.	.
.	16gg\	.	.	.	.
8D\	16aa\	.	.	.	.
.	16bb\JJ)	.	.	.	.
8c\ 8A\ 8F#\	(>16ccc\LL	.	.	.	.
.	16bb\	.	.	.	.
8D\J	16ccc\	.	.	.	.
.	16aa\JJ)	.	.	.	.
=34	=34	=34	=34	=34	=34
8B\L 8G\	16bb\LL	.	2r	.	.
.	16dd\	.	.	.	.
8D\	16ddd\	.	.	.	.
.	16dd\JJ	.	.	.	.
*	*rep	*	*	*	*
8B\ 8G\	16bb\LL	.	.	.	.
.	16dd\	.	.	.	.
8D\J	16ddd\	.	.	.	.
.	16dd\JJ	.	.	.	.
*	*Xrep	*	*	*	*
!!LO:LB:g=original
=35	=35	=35	=35	=35	=35
!	!LO:SIC:s=(16ff#LL	!	!	!	!
!	!LO:TX:a:t=3:mod=	!	!	!	!
(>8c\L 8A\ 8F#\	16ff#\LL	.	2r	.	.
!	!LO:SIC:s=16gg	!	!	!	!
.	(>16gg\	.	.	.	.
8D\	16aa\	.	.	.	.
.	16bb\JJ	.	.	.	.
8c\ 8A\ 8F#\	16ccc\LL	.	.	.	.
.	16bb\	.	.	.	.
8D\J)	16ccc\	.	.	.	.
.	16aa\JJ)	.	.	.	.
=36	=36	=36	=36	=36	=36
(>8B\L 8G\	(>16gg\LL	.	2r	.	.
.	16dd\	.	.	.	.
8D\	16bb\	.	.	.	.
.	16dd\JJ)	.	.	.	.
*	*rep	*	*	*	*
8B\ 8G\	(>16gg\LL	.	.	.	.
.	16dd\	.	.	.	.
8D\J)	16bb\	.	.	.	.
.	16dd\JJ)	.	.	.	.
*Xtremolo	*Xrep	*	*	*	*
=37	=37	=37	=37	=37	=37
!	!LO:SIC:s=(16ff#LL	!	!	!	!
!	!LO:TX:a:t=3:mod=	!	!	!	!
8A\L 8D'>\	16ff#\LL	.	2r	.	.
!	!LO:SIC:s=16gg	!	!	!	!
.	(>16gg\	.	.	.	.
8A\ 8D'>\	16aa\	.	.	.	.
.	16bb\JJ	.	.	.	.
8A\ 8F#'>\	16ccc\LL	.	.	.	.
.	16bb\	.	.	.	.
8A\J 8D'>\	16ccc\	.	.	.	.
.	16bb\JJ)	.	.	.	.
=38	=38	=38	=38	=38	=38
8d\L 8G'>\	(>16gg\LL	.	2r	.	.
.	16aa\	.	.	.	.
8d\ 8G'>\	16bb\	.	.	.	.
.	16ccc\JJ	.	.	.	.
8d\ 8B'>\	16ddd\LL	.	.	.	.
.	16bb\	.	.	.	.
8d\J 8G'>\	16gg\	.	.	.	.
.	16dd\JJ)	.	.	.	.
=39	=39	=39	=39	=39	=39
!	!LO:TX:a:t=3:mod=	!	!	!	!
8A\L 8D'>\	(>16ff#\LL	.	2r	.	.
.	16gg\	.	.	.	.
8A\ 8D'>\	16aa\	.	.	.	.
.	16bb\JJ	.	.	.	.
8A\ 8F#'>\	16ccc\LL	.	.	.	.
.	16bb\	.	.	.	.
8A\J 8D'>\	16ccc\	.	.	.	.
.	16bb\JJ)	.	.	.	.
=40	=40	=40	=40	=40	=40
(>8G\L	8gg\	.	2r	.	.
16D\L	8r	.	.	.	.
16BB\JJ)	.	.	.	.	.
8GG/	8g/L	.	.	.	.
8r	(<16a/L	.	.	.	.
.	16b/JJ)	.	.	.	.
=41	=41	=41	=41	=41	=41
8c\L 8G\ 8E\ 8C\	8cc\L	.	8cc\	I	I
8c\ 8G\ 8E\ 8C\	(>16cc\L	.	8cc\	my	my
.	16b\JJ)	.	.	.	.
8c\ 8G\ 8E\ 8C\	8cc\L	.	8cc\	też	też
8c\J 8G\ 8E\ 8C\	(>16cc\L	.	8cc\	pa-	pa-
.	16b\JJ)	.	.	.	.
=42	=42	=42	=42	=42	=42
*rep	*	*	*	*	*
!	!	!	!LO:SIC:s=8ccL	!	!
8c\L 8G\ 8E\ 8C\	(>16cc\LL	.	(>8cc\L	-trze-	-trze-
.	16dd\	.	.	.	.
!	!	!	!LO:SIC:s=8gJ	!	!
8c\ 8G\ 8E\ 8C\	16ee\	.	8g\J)	.	.
.	16cc\JJ)	.	.	.	.
8c\ 8G\ 8E\ 8C\	8g/L	.	4g/	-my	-my
8c\J 8G\ 8E\ 8C\	8g/J	.	.	.	.
*Xrep	*	*	*	*	*
!!LO:LB:g=original
=43	=43	=43	=43	=43	=43
8Fn\L 8D\ 8BB\ 8GG\	8dd\L	.	8dd\	a-	a-
8F\ 8D\ 8BB\ 8GG\	(>16dd\L	.	8dd\	-le	-le
.	16cc#X\JJ)	.	.	.	.
8F\ 8D\ 8BB\ 8GG\	8dd\L	.	8dd\	się	się
8F\J 8D\ 8BB\ 8GG\	(>16dd\L	.	8dd\	bo-	bo-
.	16cc#\JJ)	.	.	.	.
=44	=44	=44	=44	=44	=44
*rep	*	*	*	*	*
!	!	!	!LO:SIC:s=8ddL	!	!
8Fn\L 8D\ 8BB\ 8GG\	(>16dd\LL	.	(>8dd\L	-je-	-je-
.	16ee\	.	.	.	.
!	!LO:SIC:s=16ff	!	!LO:SIC:s=8gJ	!	!
8F\ 8D\ 8BB\ 8GG\	16ff#\	.	8g\J)	.	.
.	16dd\JJ)	.	.	.	.
8F\ 8D\ 8BB\ 8GG\	8g/L	.	4g/	-my	-my
8F\J 8D\ 8BB\ 8GG\	8g/J	.	.	.	.
*Xrep	*	*	*	*	*
=45	=45	=45	=45	=45	=45
8E\	8r	.	4ee\	pa-	pa-
8r	8ee\ 8e\	.	.	.	.
8C\	8r	.	4cc\	-trząc	-trząc
8r	8cc\ 8c\	.	.	.	.
=46	=46	=46	=46	=46	=46
8AA/	8r	.	4.a\	na	na
8r	8a/ 8A/	.	.	.	.
8D\	8r	.	.	.	.
8r	8dd\ 8d\	.	8dd\	te	te
=47	=47	=47	=47	=47	=47
!LO:TX:a:t=P:problem=mixed beam	!	!	!	!	!
8G\L	8r	.	8g/	dzi-	dzi-
!	!LO:TX:a:t=P:problem=mixed beam	!	!	!	!
8GG/J	8g/L	.	8g/	-wy	-wy
8G\L	8gg\J	.	4r	.	.
8c\J	8ccc\ 8cc\	.	.	.	.
=48	=48	=48	=48	=48	=48
8e\L 8E\	8eee\L 8ee\	.	2r	.	.
8e\J 8E\	8eee\J 8ee\	.	.	.	.
8c\L 8C\	8ccc\L 8cc\	.	.	.	.
8c\J 8C\	8ccc\J 8cc\	.	.	.	.
=49	=49	=49	=49	=49	=49
8A\L 8AA\	8aa\L 8a\	.	2r	.	.
8A\ 8AA\	8aa\ 8a\	.	.	.	.
8d\ 8D\	8ddd\ 8dd\	.	.	.	.
8d\J 8D\	8ddd\J 8dd\	.	.	.	.
=50	=50	=50	=50	=50	=50
16r	8gg\L 8g\	.	4r	.	.
16G\LL	.	.	.	.	.
16D\	8gg\J 8g\	.	.	.	.
16BB\JJ	.	.	.	.	.
8GG/	8g/	.	8r	.	.
8r	8r	.	8g/	trwo-	trwo-
!!LO:PB:g=original
=51	=51	=51	=51	=51	=51
8r	8r	.	4cc\	-ga	-ga
!LO:TX:a:t=P:problem=mixed beam	!	!	!	!	!
8C/L	8cc/L 8g/ 8e/	.	.	.	.
8c\J	8cc/J 8g/ 8e/	.	8r	.	.
8r	8r	.	8g/	trwo-	trwo-
=52	=52	=52	=52	=52	=52
8r	8r	.	4dd\	-ga	-ga
!LO:TX:a:t=P:problem=mixed beam	!	!	!	!	!
8GG/L	8dd/L 8b/ 8g/ 8d/	.	.	.	.
8G\J	8dd/J 8b/ 8g/ 8d/	.	8r	.	.
8r	8r	.	8g/	dla	dla
=53	=53	=53	=53	=53	=53
8E\	8r	.	4ee\	Bo-	Bo-
8r	8ee\ 8e\	.	.	.	.
8C/	8r	.	4cc\	-ga	-ga
8r	8cc\ 8c\	.	.	.	.
=54	=54	=54	=54	=54	=54
8AA/	8r	.	4a\	co	co
8r	8a/ 8A/	.	.	.	.
8D\	8r	.	4dd\	się	się
8r	8dd\ 8d\	.	.	.	.
=55	=55	=55	=55	=55	=55
16r	16r	.	8g/	dzie-	dzie-
!LO:SIC:s=(16GLL	!LO:SIC:s=(16ggLL	!	!	!	!
16G\LL	16gg\LL	.	.	.	.
!LO:SIC:s=16F#	!LO:SIC:s=16ff#	!	!	!	!
(>16F#\	(>16ff#\	.	8g/	-je	-je
16E\JJ	16ee\JJ	.	.	.	.
16D\LL	16dd\LL	.	4r	.	.
16C\	16cc\	.	.	.	.
!	!LO:SIC:s=16b	!	!	!	!
16BB\	16b\)	.	.	.	.
!LO:SIC:s=16AAJJ	!	!	!	!	!
16AA\JJ)	16a\JJ	.	.	.	.
=56	=56	=56	=56	=56	=56
!LO:SIC:s=4GG)	!LO:SIC:s=4g)	!	!	!	!
4GG/	4g/	.	8r	.	.
.	.	.	8g/	od	od
4r	4r	.	8g/	stra-	stra-
.	.	.	8g/	-chu	-chu
=57	=57	=57	=57	=57	=57
!	!	!LO:DY:a:rj	!	!	!
8G\L 8C\	8cc\L	p	4cc\	ser-	ser-
8G\J 8C\	(>16b\L	.	.	.	.
.	16cc\JJ)	.	.	.	.
8G\L 8BB\	8dd\L	.	8dd\	-ce	-ce
8G\J 8BB\	(>16cc\L	.	8dd\	tru-	tru-
.	16dd\JJ)	.	.	.	.
=58	=58	=58	=58	=58	=58
8G\L 8C\	8ee\L	.	8ee\	-chle-	-chle-
8G\ 8C\	8dd\J	.	8cc\	-je	-je
8G\ 8C\	(>16gg\LL	.	4r	.	.
.	16ff#X\	.	.	.	.
8G\J 8C\	16gg\	.	.	.	.
.	16ee\JJ)	.	.	.	.
=59	=59	=59	=59	=59	=59
8G\L 8C\	8cc\L	.	8r	.	.
8G\ 8C\	8ee\	.	8cc\	o	ser-
8G\ 8C\	8cc\	.	8cc\	ser-	-ce
8G\J 8C\	8ee\J	.	8cc\	-ce	tru-
=60	=60	=60	=60	=60	=60
4A\ 4AA\	8aa\L 8a\	.	4a/	tru-	-chle-
.	8aa\J 8a\	.	.	.	.
4Fn\ 4FFn\	8ffn\L 8fn\	.	4fn/	-chle-	-je
.	8ff\J 8f\	.	.	.	.
!!LO:LB:g=original
=61	=61	=61	=61	=61	=61
!LO:TX:a:t=P:problem=mixed beam	!	!	!	!	!
8G\L	8dd\L 8d\	.	4d/	-je	tru-
8G\	8dd\ 8d\	.	.	.	.
8GG/	8gg\ 8g\	.	4g/	tru-	-chle-
8GG/J	8gg\J 8g\	.	.	.	.
=62	=62	=62	=62	=62	=62
[>2G\ [<2C\	8cc\L 8c\	.	4c/	-chleje	-je.
.	8dd\ 8d\	.	.	.	.
.	8ee\ 8e\	.	4r	.	.
.	8ffn\J 8fn\	.	.	.	.
=63	=63	=63	=63	=63	=63
!LO:N:vis=2.	!	!	!	!	!
2G\_> 2C\_<	8gg\L 8g\	.	2r	.	.
.	(>16gg\L 16g\	.	.	.	.
.	16ff#XJJ 16f#X\)	.	.	.	.
*	*rep	*	*	*	*
.	8gg\L 8g\	.	.	.	.
.	(>16gg\L 16g\	.	.	.	.
.	16ff#X\JJ 16f#X\)	.	.	.	.
*	*Xrep	*	*	*	*
=64	=64	=64	=64	=64	=64
2G\_> 2C\_<	8gg\L 8g\	.	2r	.	.
.	16gg\L 16g\	.	.	.	.
.	16ff#X\JJ 16f#X\	.	.	.	.
.	8gg\L 8g\	.	.	.	.
.	8ccc\J 8cc\	.	.	.	.
=65	=65	=65	=65	=65	=65
2G\_> 2C\_<	4gg\ 4g\	.	2r	.	.
.	4ee\ 4e\	.	.	.	.
=66	=66	=66	=66	=66	=66
2G\_> 2C\_<	8cc\L 8c\	.	2r	.	.
.	8dd\ 8d\	.	.	.	.
.	8ee\ 8e\	.	.	.	.
.	8ffn\J 8fn\	.	.	.	.
=67	=67	=67	=67	=67	=67
2G\_> 2C\_<	8gg\L 8g\	.	2r	.	.
.	(>16gg\L 16g\	.	.	.	.
.	16ff#X\JJ 16f#X\)	.	.	.	.
*	*rep	*	*	*	*
.	8gg\L 8g\	.	.	.	.
.	(>16gg\L 16g\	.	.	.	.
.	16ff#X\JJ 16f#X\)	.	.	.	.
*	*Xrep	*	*	*	*
=68	=68	=68	=68	=68	=68
4G\] 4C\]	8gg\L 8g\	.	2r	.	.
.	16gg\L 16g\	.	.	.	.
.	16ee\JJ 16e\	.	.	.	.
4G\ 4GG\	8ffn\L 8fn\	.	.	.	.
.	8dd\J 8d\	.	.	.	.
=69	=69	=69	=69	=69	=69
4C/ 4CC/	4cc\ 4c\	.	2r	.	.
8C/ 8CC/	8ccc\ 8cc\	.	.	.	.
8r	8r	.	.	.	.
=70	=70	=70	=70	=70	=70
[>2G\ [>2D\ [<2GG\	8dd\ 8d\	.	2r	.	.
.	4dd\ 4d\	.	.	.	.
.	8dd\ 8d\	.	.	.	.
!!LO:LB:g=original
=71	=71	=71	=71	=71	=71
2G\_> 2D\_> 2GG\_<	8cc#X\L 8c#X\	.	2r	.	.
.	8dd\ 8d\	.	.	.	.
.	8ee\ 8e\	.	.	.	.
.	8dd\J 8d\	.	.	.	.
=72	=72	=72	=72	=72	=72
2G\_> 2D\_> 2GG\_<	8cc#\L 8c#X\	.	2r	.	.
.	8dd\ 8d\	.	.	.	.
.	8a\	.	.	.	.
.	8dd\J 8d\	.	.	.	.
=73	=73	=73	=73	=73	=73
2G\] 2D\] 2GG\]	8b\	.	2r	.	.
.	4gT</	.	.	.	.
.	8g/	.	.	.	.
=74	=74	=74	=74	=74	=74
8GG/	8r	.	8dd\	Oj	Oj
8r	8dd/L 8d/	.	4dd\	nie-	nie-
8G\	8g/	.	.	.	.
8r	8dd/J 8d/	.	8dd\	-bo	-bo
=75	=75	=75	=75	=75	=75
8GG/	8b/L 8g/	.	8cc#X\	o-	o-
8r	8b/ 8d/	.	8dd\	-two-	-two-
8G\	8g/	.	8ee\	-rzo-	-rzo-
8r	8b/J 8d/	.	8dd\	-ne	-ne
=76	=76	=76	=76	=76	=76
8D\	8cc/L 8a/ 8f#/	.	8cc#X\	woj-	woj-
8r	8d/	.	8dd\	-ska	-ska
8DD/	8cc/ 8a/ 8f#/	.	8a/	nie-	nie-
8r	8d/J	.	8dd\	-zli-	-zli-
=77	=77	=77	=77	=77	=77
8GG/	8b/L 8g/	.	8b\	-czo-	-czo-
8r	8d/	.	4g/	-ne	-ne
8G\	8b/ 8g/	.	.	.	.
8r	8d/J	.	8r	.	.
=78	=78	=78	=78	=78	=78
*	*tremolo	*	*	*	*
2D\ 2DD\	(<8cc/L 8a/ 8f#/	.	8a/	A-	a-
.	8d/	.	8a/	-niel-	-niel-
.	8cc/ 8a/ 8f#/	.	8d/	.	.
.	8d/J)	.	8f#/	-skie	-skie
=79	=79	=79	=79	=79	=79
2G\ 2GG\	(<8b/L 8g/	.	8g/	wi-	wi-
.	8d/	.	4b\	-dze-	-dze-
.	8b/ 8g/	.	.	.	.
.	8d/J)	.	8g/	-my	-my
!!LO:PB:g=original
=80	=80	=80	=80	=80	=80
2D\ 2DD\	(<8cc/L 8a/ 8f#/	.	8f#/	A-	a-
.	8d/	.	8f#/	-niel-	-niel-
.	8cc/ 8a/ 8f#/	.	8d/	-ski	-skie
.	8d/J)	.	8f#/	wi-	wi-
*	*Xtremolo	*	*	*	*
=81	=81	=81	=81	=81	=81
2G\ 2GG\	8b\L 8g\	.	8g/	-dze-	-dze-
.	8dd\	.	4g/	-my	-my
.	8b\ 8g\	.	.	.	.
.	8gg\J	.	8r	.	.
=82	=82	=82	=82	=82	=82
8A\L 8D\	8ff#\L	.	2r	.	.
8A\ 8D\	16ff#\L	.	.	.	.
.	16ee\JJ	.	.	.	.
8A\ 8F#\	(>16dd\LL	.	.	.	.
.	16ee\	.	.	.	.
8A\J 8D\	16ff#\	.	.	.	.
.	16dd\JJ)	.	.	.	.
=83	=83	=83	=83	=83	=83
8d\L 8G\	8gg\L	.	2r	.	.
8d\ 8G\	16gg\L	.	.	.	.
.	16ff#\JJ	.	.	.	.
8d\ 8B\	(>16gg\LL	.	.	.	.
.	16aa\	.	.	.	.
8d\J 8G\	16bb\	.	.	.	.
.	16gg\JJ)	.	.	.	.
=84	=84	=84	=84	=84	=84
8A\L 8D\	8ff#\L	.	2r	.	.
8A\ 8D\	16ff#\L	.	.	.	.
.	16ee\JJ	.	.	.	.
8A\ 8F#\	(>16dd\LL	.	.	.	.
.	16ee\	.	.	.	.
8A\J 8D\	16ff#\	.	.	.	.
.	16dd\JJ)	.	.	.	.
=85	=85	=85	=85	=85	=85
2G\ 2D\ 2GG\	8gg\	.	2r	.	.
.	4gg\	.	.	.	.
.	8g/	.	.	.	.
=86	=86	=86	=86	=86	=86
*	*tremolo	*	*	*	*
8GG/	(<8b/L 8g/	.	8dd\	Ej	ej
8r	8d/	.	4dd\	trwo-	trwo-
8G\	8b/ 8g/	.	.	.	.
8r	8d/J)	.	8dd\	-ga	-ga
=87	=87	=87	=87	=87	=87
!	!	!	!LO:SIC:s=8cc#L	!	!
8GG/	(<8b/L 8g/	.	8cc#X\	dla	dla
!	!	!	!LO:SIC:s=8ddJ	!	!
8r	8d/	.	8dd\	.	.
8G\	8b/ 8g/	.	8ee\	Bo-	Bo-
8r	8d/J)	.	8dd\	-ga	-ga
=88	=88	=88	=88	=88	=88
!	!	!	!LO:SIC:s=8cc#L	!	!
8G\	(<8b/L 8g/	.	8cc#X\	co	co
!	!	!	!LO:SIC:s=8ddJ	!	!
8r	8d/	.	8dd\	.	.
!	!	!	!LO:SIC:s=8aL	!	!
8GG/	8b/ 8g/	.	8a\	się	się
!	!	!	!LO:SIC:s=8ddJ	!	!
8r	8d/J)	.	8dd\	.	.
!!LO:LB:g=original
=89	=89	=89	=89	=89	=89
8G\	8b/L 8g/	.	8b\	dzie-	dzie-
8r	8d/	.	4g/	-je	-je
8GG/	8b/ 8g/	.	.	.	.
8r	8d/J	.	8r	.	.
*	*Xtremolo	*	*	*	*
=90	=90	=90	=90	=90	=90
*tremolo	*	*	*	*	*
8c\L 8D\	8f#/L	.	8f#/	od	od
8c\ 8D\	16f#/L	.	4a/	stra-	stra-
.	16e/JJ	.	.	.	.
8c\ 8D\	16d/LL	.	.	.	.
.	(<16e/	.	.	.	.
8c\J 8D\	16f#/	.	8d/	-chu	-chu
.	16d/JJ)	.	.	.	.
=91	=91	=91	=91	=91	=91
8B\L 8D\	8g/L	.	8g/L	ser-	ser-
8B\ 8D\	16g/L	.	8a/J	.	.
.	16f#/JJ	.	.	.	.
8B\ 8D\	(<16g/LL	.	8b\L	-ce	-ce
.	16a/	.	.	.	.
8B\J 8D\	16b/	.	8dd\J	.	.
.	16g/JJ)	.	.	.	.
=92	=92	=92	=92	=92	=92
!	!LO:TX:a:t=P:problem=mixed beam	!	!	!	!
(>8c\L 8A\ 8F#\	8f#/L	.	8f#/	ser-	ser-
8D\	16ff#\L	.	4a/	-ce	-ce
.	16ee\JJ	.	.	.	.
8c\ 8A\ 8F#\	(>16dd\LL	.	.	.	.
.	16ee\	.	.	.	.
8D\J)	16ff#\	.	8d/	tru-	tru-
.	16ee\JJ)	.	.	.	.
=93	=93	=93	=93	=93	=93
(>8B\L 8G\	8gg\ 8b\	.	8a/L	-chle-	-chle-
8D\	4b\ 4g\	.	8g/J	.	.
8B\ 8G\	.	.	8g/	-je	-je.
8D\J)	8gg\ 8b\	.	8r	.	.
=94	=94	=94	=94	=94	=94
(>8c\L 8A\ 8F#\	8ff#\L	.	2r	.	.
8D\	16ff#\L	.	.	.	.
.	16ee\JJ	.	.	.	.
8c\ 8A\ 8F#\	(>16dd\LL	.	.	.	.
.	16ee\	.	.	.	.
8D\J)	16ff#\	.	.	.	.
.	16dd\JJ)	.	.	.	.
=95	=95	=95	=95	=95	=95
(>8B\L 8G\	8gg\L	.	2r	.	.
8D\	16gg\L	.	.	.	.
.	16ff#\JJ	.	.	.	.
8B\ 8G\	(>16gg\LL	.	.	.	.
.	16aa\	.	.	.	.
8D\J)	16bb\	.	.	.	.
.	16gg\JJ)	.	.	.	.
=96	=96	=96	=96	=96	=96
(>8c\L 8A\ 8F#\	8ff#\L	.	2r	.	.
8D\	(>16ff#\L	.	.	.	.
.	16ee\JJ)	.	.	.	.
8c\ 8A\ 8F#\	(>16dd\LL	.	.	.	.
.	16ee\	.	.	.	.
8D\J)	16ff#\	.	.	.	.
.	16dd\JJ)	.	.	.	.
*Xtremolo	*	*	*	*	*
!!LO:LB:g=original
=97	=97	=97	=97	=97	=97
(>(>2G\ [>2D\ 2GG\	8gg\	.	2r	.	.
.	4gg\	.	.	.	.
.	16aa\LL	.	.	.	.
.	16bb\JJ	.	.	.	.
=98	=98	=98	=98	=98	=98
2A\ 2D\]))	8dd\L	.	2r	.	.
.	(>16ee\L	.	.	.	.
.	16ff#\JJ)	.	.	.	.
.	8dd\L	.	.	.	.
.	(>16ee\L	.	.	.	.
.	16ff#\JJ)	.	.	.	.
=99	=99	=99	=99	=99	=99
[>2G\ [>2D\ [<2GG\	8gg\L	.	2r	.	.
.	(>16aa\L	.	.	.	.
.	16bb\JJ)	.	.	.	.
.	8gg\L	.	.	.	.
.	(>16aa\L	.	.	.	.
.	16bb\JJ)	.	.	.	.
=100	=100	=100	=100	=100	=100
2G\] 2D\] 2GG\]	8gg\L	.	2r	.	.
.	8bb\	.	.	.	.
.	8ddd\	.	.	.	.
.	8bb\J	.	.	.	.
=101	=101	=101	=101	=101	=101
4G\ 4D\ 4GG\	8gg\L	.	2r	.	.
.	16aa\L	.	.	.	.
.	16bb\JJ	.	.	.	.
4A\ 4D\	8dd\L	.	.	.	.
.	16ee\L	.	.	.	.
.	16ff#\JJ	.	.	.	.
=102	=102	=102	=102	=102	=102
!	!LO:TX:a:t=P:problem=mixed beam	!	!	!	!
4G/ 4GG/	8gg\L	.	8r	.	.
.	8dd/ 8b/ 8g/	.	8dd\	Hej	Hej
4D\	8dd/ 8b/ 8g/	.	4dd\	pa-	pa-
.	8dd/J 8b/ 8g/	.	.	.	.
=103	=103	=103	=103	=103	=103
4G\	8r	.	8cc#X\	-ste-	-ste-
.	8b/L 8g/ 8d/	.	8dd\	-rze	-rze
4GG/	8b/ 8g/ 8d/	.	8ee\	mi-	mi-
!LO:TX:a:t=VS&colon;:mod=	!	!	!	!	!
.	8b/J 8g/ 8d/	.	8dd\	-li	-li
!!LO:PB:g=original
=104	=104	=104	=104	=104	=104
4GG/	8r	.	8cc#X\	dzi-	dzi-
.	8b/L 8g/ 8d/	.	8dd\	-siaj	-siaj
4G\	8b/ 8g/ 8d/	.	8a/	o	o
.	8b/J 8g/ 8d/	.	8dd\	tej	tej
=105	=105	=105	=105	=105	=105
*	*rep	*	*	*	*
4GG/	8r	.	8b\	chwi-	chwi-
.	8b/L 8g/ 8d/	.	4g/	-li	-li
4G\	8b/ 8g/ 8d/	.	.	.	.
.	8b/J 8g/ 8d/	.	8r	.	.
*	*Xrep	*	*	*	*
=106	=106	=106	=106	=106	=106
4D\	8r	.	8f#/	Chry-	Chry-
.	8a/L 8f#/ 8d/	.	8f#/	-stus	-stus
4DD/	8a/ 8f#/ 8d/	.	8d/	się	się
.	8a/J 8f#/ 8d/	.	8f#/	na-	na-
=107	=107	=107	=107	=107	=107
4GG/	8r	.	8g/	-ro-	-ro-
.	8b/L 8g/ 8d/	.	4b\	-dził	-dził
4G\	8b/ 8g/ 8d/	.	.	.	.
.	8b/J 8g/ 8d/	.	8r	.	.
=108	=108	=108	=108	=108	=108
4D\	8r	.	8f#/	Chry-	Chry-
.	8cc/L 8a/ 8f#/ 8d/	.	8f#/	-stus	-stus
4DD/	8cc/ 8a/ 8f#/ 8d/	.	8d/	się	się
.	8cc/J 8a/ 8f#/ 8d/	.	8f#/	na-	na-
=109	=109	=109	=109	=109	=109
8G\L	8b\L 8g\	.	8g/	-ro-	-ro-
16D\L	8b\ 8g\	.	4g/	-dził	-dził
16BB\JJ	.	.	.	.	.
4GG/	8b\ 8g\	.	.	.	.
.	8gg\J	.	8r	.	.
=110	=110	=110	=110	=110	=110
[>2D/ [<2GG/	8dd\ 8d\	.	8dd\	by	by
.	4dd\ 4d\	.	4dd\	do	do
.	8dd\ 8d\	.	8dd\	Be-	Be-
=111	=111	=111	=111	=111	=111
!LO:TX:t=P:problem=brak początku ligatury	!	!	!	!	!
2D/_> 2GG/_<	8cc#L 8c#X\	.	8cc#X\	-tle-	-tle-
.	8dd\ 8d\	.	8dd\	-em	-jem
!	!	!	!	!LO:MO:P=za dużo sylab w stosunku do nut	!
.	8ee\ 8e\	.	8ee\	bież-	bież-
.	8dd\J 8d\	.	8dd\	-ecie	-cie
!!LO:LB:g=original
=112	=112	=112	=112	=112	=112
2D/_> 2GG/_<	8cc#\L 8c#X\	.	8cc#X\	tam	tam
.	8dd\ 8d\	.	8dd\	dzie-	dzie-
.	8a\	.	8a\	-cie	-cie
.	8dd\J 8d\	.	8dd\	znaj-	znaj-
=113	=113	=113	=113	=113	=113
2D/] 2GG/]	8b\	.	8b\	-dzie-	-dzie-
.	4g/	.	4g/	-cie	-cie
.	8g/	.	8g/	tam	tam
=114	=114	=114	=114	=114	=114
8D\L	8f#/L	.	8f#/	dzie-	dzie-
8c\ 8A\ 8F#\	16f#/L	.	8f#/	-cie	-cie
.	16e/JJ	.	.	.	.
8c\ 8A\ 8F#\	(<16d/LL	.	8d/	znaj-	znaj-
.	16e/	.	.	.	.
8c\J 8A\ 8F#\	16f#/	.	8f#/	.	.
.	16d/JJ)	.	.	.	.
=115	=115	=115	=115	=115	=115
*tremolo	*	*	*	*	*
(>8B\L 8G\	8g/L	.	8a/	-dzie-	-dzie-
8D\	16g/L	.	4b\	-cie	-cie
.	16f#/JJ	.	.	.	.
8B\ 8G\	16g/LL	.	.	.	.
.	(<16a/	.	.	.	.
8D\J)	16b/	.	8r	.	.
.	16g/JJ)	.	.	.	.
*Xtremolo	*	*	*	*	*
=116	=116	=116	=116	=116	=116
8c\L 8A\ 8F#\	8f#/L	.	8f#/	tam	tam
8D\	16f#/L	.	8f#/	dzie-	dzie-
.	16e/JJ	.	.	.	.
8c\ 8A\ 8F#\	16d/LL	.	8d/	-cie	-cie
.	(<16e/	.	.	.	.
8D\J	16f#/	.	8f#/	znaj-	znaj-
.	16d/JJ)	.	.	.	.
=117	=117	=117	=117	=117	=117
*tremolo	*	*	*	*	*
!LO:SIC:s=(8BL 8G	!	!	!	!	!
8B\L 8G\	8g/	.	8g/	-dzie-	-dzie-
8D\	4g/	.	4g/	-cie	-cie.
8B\ 8G\	.	.	.	.	.
!LO:SIC:s=8DJ)	!	!	!	!	!
8D\J	8gg\	.	8r	.	.
=118	=118	=118	=118	=118	=118
8c\L 8F#\ 8D\	(>16ff#\LL	.	2r	.	.
.	16ee\	.	.	.	.
8c\ 8F#\ 8D\	16dd\	.	.	.	.
.	16ee\JJ)	.	.	.	.
8c\ 8F#\ 8D\	(>16ff#\LL	.	.	.	.
.	16gg\	.	.	.	.
8c\J 8F#\ 8D\	16aa\	.	.	.	.
.	16ff#\JJ)	.	.	.	.
=119	=119	=119	=119	=119	=119
8B\L 8G\ 8D\	8gg\L	.	2r	.	.
8B\ 8G\ 8D\	8gg\J	.	.	.	.
8B\ 8G\ 8D\	8bb\L 8b\	.	.	.	.
8B\J 8G\ 8D\	8gg\J 8g\	.	.	.	.
!!LO:LB:g=original
=120	=120	=120	=120	=120	=120
8c\L 8A\ 8F#\ 8D\	8ff#\L 8f#\	.	2r	.	.
8c\ 8A\ 8F#\ 8D\	8aa\ 8a\	.	.	.	.
8c\ 8A\ 8F#\ 8D\	8ddd\ 8dd\	.	.	.	.
8c\J 8A\ 8F#\ 8D\	8ff#\J 8f#\	.	.	.	.
=121	=121	=121	=121	=121	=121
!LO:SIC:s=8BL 8G 8D	!	!	!	!	!
8B\L 8G\ 8C\	4.gg\	.	2r	.	.
!LO:SIC:s=8B 8G 8D	!	!	!	!	!
8B\ 8G\ 8C\	.	.	.	.	.
!LO:SIC:s=8B 8G 8D	!	!	!	!	!
8B\ 8G\ 8C\	.	.	.	.	.
!LO:SIC:s=8BJ 8G 8D	!	!	!	!	!
8B\J 8G\ 8C\	8gg\	.	.	.	.
*Xtremolo	*	*	*	*	*
=122	=122	=122	=122	=122	=122
[>\2d [>\2A [<2D\	4.ff#\	.	2r	.	.
.	8aa\	.	.	.	.
=123	=123	=123	=123	=123	=123
2d\] 2A\] 2D\]	8.dd\L	.	2r	.	.
.	16ccc\Jk	.	.	.	.
.	8.ff#\L	.	.	.	.
.	16aa\Jk	.	.	.	.
=124	=124	=124	=124	=124	=124
[>2G\ [>2D\ [<2GG\	4.gg\	.	2r	.	.
.	8bb\	.	.	.	.
=125	=125	=125	=125	=125	=125
2G\] 2D\] 2GG\]	8.gg\L	.	2r	.	.
.	16bb\Jk	.	.	.	.
.	8.gg\L	.	.	.	.
.	16ddd\Jk	.	.	.	.
=126	=126	=126	=126	=126	=126
[>2A\ [>2F#\ [<2D\	4.ff#\	.	2r	.	.
.	8aa\	.	.	.	.
=127	=127	=127	=127	=127	=127
2A\] 2F#\] 2D\]	8.dd\L	.	2r	.	.
.	16ddd\Jk	.	.	.	.
.	8.ff#\L	.	.	.	.
.	16aa\Jk	.	.	.	.
=128	=128	=128	=128	=128	=128
!LO:SIC:s=(8GL	!LO:SIC:s=(8ggL	!	!	!	!
8G\L	8gg\L	.	2r	.	.
!LO:SIC:s=16F#L	!LO:SIC:s=16ff#L	!	!	!	!
(>16F#\L	(>16ff#\L	.	.	.	.
16E\JJ	16ee\JJ	.	.	.	.
16D\LL	16dd\LL	.	.	.	.
16C\	16cc\	.	.	.	.
16BB\	16b\	.	.	.	.
16AA\JJ)	16a\JJ)	.	.	.	.
!!LO:PB:g=original
=129	=129	=129	=129	=129	=129
8GG/L	4g/	.	4g/	.	.
8BB/	.	.	.	.	.
8D/	4dd/ 4b/ 4g/	.	4dd\ 4b\ 4g\	.	.
8GG/J	.	.	.	.	.
=130	=130	=130	=130	=130	=130
4G/ 4GG/	4gg\ 4dd\ 4b\ 4g\	.	4gg\ 4dd\ 4b\ 4g\	.	.
4r	4r	.	4r	.	.
==	==	==	==	==	==
*-	*-	*-	*-	*-	*-
!!!system-decoration: s1[{p2}]
!!!RDF**kern: > = above
!!!RDF**kern: < = below
!!!ENC: Berenika Jozajtis
!!!END: 2021-11-22
!!!ENC: Jędrzej Mróz
!!!END: 2021-12-01
!!!ENC-modern: Andrzej Kubiczek
!!!END-modern: 2022-08-22
!!!filter-modern: shed -k -e "s/([^a-gA-Gn#X-])[<>]/$1/g" | shed -e "s/LO:DY:(a|b)/LO:dy:$1/L" | shed -e "s/^(X?)rep$/$1REP/I" | shed -e "s/TX(.*):t=P:/tx$1:t=P:/LG" | shed -e "s/LO:N:/LO:n:$1/L" | shed -e "s/:rj/:RJ/L" | sic -sq | modori -m | autostem -r | tie -s | humtr -p | shed -e "s/yy//"
!!!YEC: Copyright 2022 Narodowy Instytut Fryderyka Chopina (https://polishscores.org)
!!!YEM: License CC-BY-4.0 (https://creativecommons.org/licenses/by/4.0)
